X:37
T:Royal Midshipman, The
M:6/8
L:1/8
B:Thompson's Compleat Collection of 200 Favourite Country Dances, vol. 2 (London, 1765)
Z:Transcribed and edited by Flynn Titford-Mock, 2007
Z:abc's:AK/Fiddler's Companion
K:G
f | gdB ecA | dBG AG/F/E/D/ | gdB ecA | BAG d2 :|
|: d | de=f eBc | Aag fed | c/d/ec B/c/dB | Agf g2 :|

